X:3
T:Bernie's Tune
C:Bernie Miller
L:1/8
M:C
I:linebreak $
K:F
"Dm6" z A2 ^G A3 A |"Dm" z ^G A2 A,DFA |"Fm" _A8 |"E7" E8 |$"Eø" z G2 ^F G3 G |
"A7" z ^F G2 A,^CEG ||1"Dm6" F8 "Bø" x4|"Bb7" D8 "A7" x4:|2$"Dm6" F8 "F7" x4|"Bb7" D8 "A7" x4||
[K:Bb]"Bb" B,4"Gm" G F2 D |"Cm" C4"F7" D4 |"Bb" B,4"Gm" G F2 D |"Cm" C4"F7" D4 |$
"Bb" B,4"Gm" G F2 D |"Cm" C4"F7" D4 |"Bb" B4"Gm" F G3 ||[K:F]"Eø" A8"Eb7""_D.C. al 3rd end." x4 ||3
"Dm6" F8 | z8 |]

